icons/chat-off.svg

<svg width="24" height="24" viewBox="0 0 24 24" fill="none" xmlns="http://www.w3.org/2000/svg">
<g clip-path="url(#clip0)">
<path fill-rule="evenodd" clip-rule="evenodd" d="M0.292893 0.292893C0.683417 -0.0976311 1.31658 -0.0976311 1.70711 0.292893L23.7071 22.2929C24.0976 22.6834 24.0976 23.3166 23.7071 23.7071C23.3166 24.0976 22.6834 24.0976 22.2929 23.7071L17.5858 19H6.41421L3.70711 21.7071C3.42111 21.9931 2.99099 22.0787 2.61732 21.9239C2.24364 21.7691 2 21.4045 2 21V4C2 3.83046 2.04219 3.67077 2.11665 3.53086L0.292893 1.70711C-0.0976311 1.31658 -0.0976311 0.683417 0.292893 0.292893ZM4 5.41421V18.5858L5.29289 17.2929C5.48043 17.1054 5.73478 17 6 17H15.5858L4 5.41421ZM8 4C8 3.44772 8.44772 3 9 3H21C21.5523 3 22 3.44772 22 4V16C22 16.5523 21.5523 17 21 17C20.4477 17 20 16.5523 20 16V5H9C8.44772 5 8 4.55228 8 4Z" fill="black"/>
</g>
<defs>
<clipPath id="clip0">
<rect width="24" height="24" fill="white"/>
</clipPath>
</defs>
</svg>

<svg
  width="24"
  height="24"
  viewBox="0 0 24 24"
  xmlns="http://www.w3.org/2000/svg"
>
  <g clip-path="url(#a)">
    <path
      fill-rule="evenodd"
      clip-rule="evenodd"
      d="M.293.293a1 1 0 0 1 1.414 0l22 22a1 1 0 0 1-1.414 1.414L17.586 19H6.414l-2.707 2.707A1 1 0 0 1 2 21V4c0-.17.042-.33.117-.47L.293 1.708a1 1 0 0 1 0-1.414zM4 5.414v13.172l1.293-1.293A1 1 0 0 1 6 17h9.586L4 5.414zM8 4a1 1 0 0 1 1-1h12a1 1 0 0 1 1 1v12a1 1 0 1 1-2 0V5H9a1 1 0 0 1-1-1z"
    />
  </g>
  <defs>
    <clipPath id="a">
      <rect width="24" height="24" />
    </clipPath>
  </defs>
</svg>
